example/source/Internet_Tel.svg

<?xml version="1.0" encoding="UTF-8"?>
<svg xmlns="http://www.w3.org/2000/svg" xmlns:xlink="http://www.w3.org/1999/xlink" contentScriptType="text/ecmascript" zoomAndPan="magnify" baseProfile="tiny" contentStyleType="text/css" version="1.1" width="44px" preserveAspectRatio="xMidYMid meet" viewBox="0 0 44 44" height="44px" x="0px" y="0px">
    <rect width="44" fill="none" height="44"/>
    <g>
        <path d="M 3.114 20.697 C 3.114 12.121 9.985 4.578001 18.534 3.8199997 C 27.187 3.0519996 35.406 9.355999 36.791 17.951 C 38.177002 26.532001 32.48 35.191 23.999 37.189003 C 15.29 39.236 6.104 33.854 3.725 25.215 C 3.321 23.745 3.114 22.222 3.114 20.697 " fill-opacity="0.2"/>
        <path d="M 35.707 20.703 C 35.707 29.244 28.346 36.490997 19.804 36.348 C 15.649 36.278 11.650001 34.46 8.785001 31.462 C 6.0770006 28.63 4.0510006 24.322 4.4330006 20.32 C 4.6690006 17.838 7.1870003 16.508 9.284 15.778 C 11.831 14.891 14.587 14.507 17.264 14.296 C 21.241 13.983 25.326 14.19 29.17 15.302 C 31.71 16.036 35.707 17.473 35.707 20.703 " fill-opacity="0.5"/>
        <linearGradient x1="1070.0752" gradientTransform="matrix(1 0 0 1 -1050.0107 -3832.0244)" y1="3867.0625" x2="1070.0752" gradientUnits="userSpaceOnUse" y2="3835.7773" xlink:type="simple" xlink:actuate="onLoad" id="SVGID_1_" xlink:show="other">
            <stop stop-color="#84d8fd" offset="0"/>
            <stop stop-color="#7dd1fb" offset="0.1127"/>
            <stop stop-color="#6bbef7" offset="0.2752"/>
            <stop stop-color="#4d9ff0" offset="0.4679"/>
            <stop stop-color="#2676e7" offset="0.6703"/>
            <stop stop-color="#2676e7" offset="1"/>
        </linearGradient>
        <path fill="url(#SVGID_1_)" d="M 20.062 3.753 C 28.602001 3.753 35.848 11.114 35.703 19.654 C 35.559998 28.192 28.085999 35.319 19.549 35.029 C 11.21 34.748 4.283 27.484 4.424 19.138 C 4.563 10.796 11.717 3.753 20.062 3.753 "/>
        <linearGradient x1="243.3535" gradientTransform="matrix(1 0 0 1 -224 -1496)" y1="1529.1045" x2="243.3535" gradientUnits="userSpaceOnUse" y2="1501.3435" xlink:type="simple" xlink:actuate="onLoad" id="SVGID_2_" xlink:show="other">
            <stop stop-color="#c5eaff" offset="0"/>
            <stop stop-color="#7ac6f7" offset="1"/>
        </linearGradient>
        <path fill="url(#SVGID_2_)" d="M 32.152 20.425 C 32.115 20.146 31.743 20.146 31.533 20.149 C 31.12 20.155 31.0 20.114 30.720001 19.811 C 30.304 19.36 29.167002 19.698 28.616001 19.669 C 28.166 19.645 28.252 19.498001 27.982 19.228 C 27.644001 18.893002 27.644001 19.061 27.314001 19.194 C 26.744001 19.426 25.759 19.12 25.136002 19.094 C 24.388002 19.063 24.62 19.498 24.083002 19.843 C 23.856003 19.989 23.468002 20.896 23.149002 20.723 C 22.531002 20.381 21.825003 20.991999 21.227001 20.47 C 20.782001 20.081 20.260002 19.369 19.598001 19.553999 C 18.960001 19.731998 18.973001 18.615 18.256 18.992998 C 18.063 19.094997 18.18 19.324999 18.082 19.474998 C 17.919 19.723999 17.569 19.888998 17.303001 19.994999 C 16.718002 20.227999 16.136002 19.616999 15.875002 19.146 C 15.551002 18.563 16.276001 18.864 15.928002 18.385 C 15.864002 18.296 15.619002 18.096 15.771003 17.989 C 16.096003 17.765 15.888002 17.6 16.060003 17.29 C 16.036003 17.332 16.813004 17.308 16.891003 17.308 C 17.025003 17.308 17.435003 17.41 17.407003 17.145 C 17.402004 17.098 17.294003 16.667 17.369003 16.667 C 17.497004 16.667 18.473003 16.579 18.453003 16.553999 C 18.556004 16.682 18.758003 16.669998 18.897003 16.64 C 19.085003 16.598999 19.498003 17.16 19.608004 17.271 C 20.042004 16.868 19.280005 16.394 19.135004 16.046 C 18.999004 15.719 19.373005 15.436 19.232004 15.1119995 C 19.077003 14.752 19.435003 14.563999 19.698004 14.403 C 20.169004 14.116 20.383003 13.582 20.510004 13.068 C 20.578005 12.794 20.625004 12.506 20.609005 12.222 C 20.582005 11.706 20.026005 11.907001 19.616005 11.907001 C 19.620005 11.59 19.916004 11.464001 20.193005 11.477 C 20.653004 11.499001 20.851006 11.1380005 21.136005 10.856 C 21.490005 11.571 22.099005 10.638 22.204006 10.32 C 22.311007 9.992 22.547007 9.669 22.854006 9.500999 C 23.197006 9.313 23.264006 8.907999 23.526007 8.646 C 23.118008 8.465 22.662006 8.438 22.251007 8.265 C 21.772007 8.061001 21.456007 7.5330005 21.209007 7.096 C 20.998007 6.7130003 20.994007 6.216 20.685007 5.8840003 C 20.430008 5.61 19.951008 5.4760003 19.602007 5.386 C 19.072006 5.25 17.891006 5.7130003 18.110006 6.431 C 18.244007 6.8710003 18.972006 8.341001 18.280006 8.725 C 18.069006 8.842 17.580006 8.836 17.473007 9.094001 C 17.366007 9.353001 17.881008 9.659 17.626007 9.985001 C 17.082006 10.685 16.951008 9.39 16.678007 9.341001 C 16.305008 9.274 16.105007 9.543 15.695007 9.245001 C 15.444007 9.063001 15.693007 8.771001 15.190007 8.845001 C 14.787007 8.904001 14.569007 8.913001 14.249007 8.625001 C 14.024007 8.425001 13.658008 7.934001 14.097007 7.742001 C 14.557007 7.540001 15.796007 6.0410013 14.812007 5.842001 C 14.697007 5.819001 14.577007 5.822001 14.454007 5.837001 C 10.948008 7.342001 8.080008 10.194 6.547007 13.691001 C 6.677007 13.799001 6.798007 13.917001 6.911007 14.112001 C 7.176007 14.569001 7.4070067 14.571001 7.858007 14.769001 C 8.376007 14.997001 8.492007 14.823001 8.492007 15.436001 C 8.492007 16.165 8.873007 17.715 9.753007 17.715 C 10.2590065 17.715 10.501007 18.057 10.827007 18.384 C 11.210008 18.768002 11.601007 19.048 12.113008 19.236 C 11.942007 19.162 11.792007 19.059 11.661008 18.928 C 12.309008 18.282 13.2780075 19.674 13.723008 20.152 C 14.413008 20.894001 15.697008 20.970001 16.670008 20.852001 C 16.942007 20.818 17.160007 20.633001 17.343008 20.441002 C 17.614008 20.157001 17.630009 20.159002 17.911009 20.165003 C 18.21201 20.171003 18.428009 19.672003 18.86501 19.739002 C 19.029009 19.763002 20.22201 20.039001 20.234009 20.135002 C 20.293009 20.644003 22.519009 21.078003 22.28501 21.605001 C 22.116009 21.981 21.70701 22.132002 21.71101 22.596 C 21.71201 22.829 21.65301 23.499 21.85901 23.672 C 22.10901 23.879002 22.39401 24.063002 22.70701 24.130001 C 23.07101 24.209002 23.18601 24.879002 23.41101 25.145 C 23.67901 25.463001 23.94001 25.61 24.341011 25.615 C 24.40401 25.617 25.14801 25.653 25.14801 25.653 C 24.99401 25.837 25.37501 26.044 25.52701 26.198 C 25.67301 26.342 25.59001 26.725 25.57601 26.906 C 25.51901 27.463 25.51701 28.151001 25.84101 28.635 C 26.259008 29.271 26.22301 29.613 26.182009 30.355 C 26.17001 30.501999 26.048008 31.468 26.23701 31.51 C 26.32701 31.531 26.557009 31.187 26.61801 31.124 C 26.68801 31.526001 27.20101 31.649 26.88901 32.103 C 26.831009 32.185 26.82601 32.285 26.84101 32.381 C 27.352009 32.11 27.84001 31.800001 28.31901 31.470001 C 28.23101 31.366001 28.09001 31.183 28.09801 31.116001 C 28.09801 31.04 28.77801 31.094002 28.634008 30.801 C 28.565008 30.652 28.024008 30.361 28.45901 30.202 C 28.56601 30.161999 28.873009 30.136 28.85001 29.944 C 28.80501 29.629 29.09601 29.61 29.31501 29.423 C 29.83901 28.967001 29.75701 28.803 29.27801 28.369 C 28.93001 28.056 29.48301 28.126999 29.67401 28.123999 C 30.23701 28.110998 29.884008 27.546 30.12901 27.216 C 30.39501 26.858 31.15201 26.305 30.72901 25.793 C 30.442009 25.453999 30.90701 24.83 30.62501 24.546999 C 31.06201 24.984999 31.56501 24.151999 31.79101 23.870998 C 32.28601 23.238998 32.020008 22.776999 31.82101 22.097998 C 31.643 21.493 32.232 21.017 32.152 20.425 z "/>
        <linearGradient x1="1070.0029" gradientTransform="matrix(1 0 0 1 -1050.0107 -3832.0244)" y1="3851.4004" x2="1070.0029" gradientUnits="userSpaceOnUse" y2="3836.4092" xlink:type="simple" xlink:actuate="onLoad" id="SVGID_3_" xlink:show="other">
            <stop stop-color="#26bfff" offset="0"/>
            <stop stop-color="#43c8ff" offset="0.0464"/>
            <stop stop-color="#6fd5ff" offset="0.1258"/>
            <stop stop-color="#96e0ff" offset="0.2112"/>
            <stop stop-color="#b6eaff" offset="0.3018"/>
            <stop stop-color="#d1f1ff" offset="0.3987"/>
            <stop stop-color="#e5f7ff" offset="0.5044"/>
            <stop stop-color="#f4fcff" offset="0.6233"/>
            <stop stop-color="#fcfeff" offset="0.7666"/>
            <stop stop-color="#ffffff" offset="1"/>
        </linearGradient>
        <path fill="url(#SVGID_3_)" d="M 4.999 19.397 C 4.999 11.306 11.899 4.405999 19.99 4.405999 C 28.08 4.405999 34.982 11.304999 34.982 19.397 C 24.986 19.397 14.993 19.397 4.999 19.397 " fill-opacity="0.7"/>
    </g>
    <g>
        <g>
            <path d="M 42.938 17.978 C 40.973 14.645 36.764 13.356001 33.203 14.742001 L 33.170998 14.696001 C 27.371998 17.773 22.568996 22.271 19.288998 27.975002 C 18.147997 29.956001 16.949997 32.118004 16.862997 34.455 C 16.741997 37.708 18.605997 40.705 21.585997 42.018 L 25.027996 41.455 L 27.519997 34.253002 C 26.650997 33.064003 25.726997 31.880003 24.613997 30.907001 C 24.642996 30.781002 24.689997 30.618002 24.759996 30.411001 C 25.663996 28.772001 26.787996 27.259 28.057997 25.883001 C 29.225996 24.614002 30.661997 22.954002 32.322 22.359001 C 33.406 23.359001 34.678997 24.161001 35.961998 24.883001 L 42.856 21.627 L 43.038998 18.140001 L 42.938 17.978 " fill-opacity="0.2"/>
            <path d="M 26.829 34.46 C 25.107 32.106 23.939001 31.258 23.939001 31.258 C 23.939001 31.258 23.964 30.925 24.191002 30.264 C 25.261002 28.309 26.634003 26.531 28.191002 24.944 C 29.373001 23.741001 30.783 22.157 32.491 21.764 C 32.491 21.764 33.464 22.832 35.988003 24.289 L 42.253002 21.326 L 42.407 18.397 C 42.109 17.894999 41.747 17.421999 41.316 16.991999 C 39.097 14.770999 35.755 14.324999 32.966003 15.613998 L 32.964005 15.607999 L 32.964005 15.607999 C 31.411005 16.287998 29.933004 17.405998 28.597004 18.426998 C 26.758003 19.829998 25.056004 21.352999 23.545004 23.108997 C 21.226004 25.805998 19.079004 29.024998 17.872004 32.401997 L 17.872004 32.401997 L 17.876003 32.401997 C 16.900003 35.313995 17.707003 38.589996 20.155003 40.550995 C 20.630003 40.930996 21.139002 41.239994 21.669003 41.481995 L 24.564003 41.010994 L 26.829 34.46 " fill-opacity="0.4"/>
            <linearGradient x1="275.4727" gradientTransform="matrix(1 0 0 -1 -258.002 -981.0039)" y1="-1008.5762" x2="300.4082" gradientUnits="userSpaceOnUse" y2="-1008.5762" xlink:type="simple" xlink:actuate="onLoad" id="SVGID_4_" xlink:show="other">
                <stop stop-color="#66e800" offset="0"/>
                <stop stop-color="#1f7216" offset="1"/>
            </linearGradient>
            <path fill="url(#SVGID_4_)" d="M 26.829 33.841 C 25.107 31.489 23.939001 30.639 23.939001 30.639 C 24.218 28.598 26.139002 26.555 27.476002 25.081 C 28.795002 23.628 30.505001 21.620998 32.49 21.144 C 32.49 21.144 33.463 22.210999 35.986 23.668 L 42.252 20.706999 L 42.406 17.776999 C 42.107 17.274998 41.746 16.801998 41.315998 16.373 C 39.094997 14.151999 35.753998 13.705999 32.964996 14.9939995 L 32.962997 14.988 L 32.962997 14.989 C 29.486998 16.861 26.276997 19.348 23.682999 22.329 C 21.334 25.026001 19.015999 28.346 17.869999 31.782001 L 17.869999 31.782001 L 17.873999 31.782001 C 16.897 34.695 17.704998 37.968002 20.152998 39.933002 C 20.626999 40.312004 21.135998 40.622 21.666998 40.865 L 24.561998 40.394 L 26.829 33.841 "/>
            <linearGradient x1="287.9863" gradientTransform="matrix(1 0 0 -1 -258.002 -981.0039)" y1="-995.7998" x2="287.9863" gradientUnits="userSpaceOnUse" y2="-1014.082" xlink:type="simple" xlink:actuate="onLoad" id="SVGID_5_" xlink:show="other">
                <stop stop-color="#cfffb6" offset="0"/>
                <stop stop-color="#8def00" offset="1"/>
            </linearGradient>
            <path fill="url(#SVGID_5_)" d="M 41.883 17.909 C 41.625 17.492 41.317 17.099 40.954998 16.738 C 39.656 15.441001 37.948997 14.7960005 36.204 14.7960005 C 35.182 14.7960005 34.146 15.019 33.183 15.463 L 33.062 15.519 L 33.06 15.52 C 32.84 15.626 32.625 15.747001 32.416 15.876 L 32.407 15.88 L 32.401 15.883 C 31.548 16.368 30.09 17.271 28.408 18.605 L 28.403002 18.608 L 28.4 18.61 C 26.331 20.167 24.626999 21.934 23.25 23.649 C 20.751 26.766 19.306 29.727001 18.698 31.121 L 18.696 31.129 L 18.692 31.14 C 18.585999 31.366 18.49 31.59 18.41 31.817999 L 18.407999 31.827 L 18.366 31.947 C 18.241999 32.318 18.149 32.701 18.085999 33.08 C 22.189 27.199001 32.586 14.163002 39.899 21.253002 L 41.753 20.374002 L 41.883 17.909 z "/>
        </g>
    </g>
</svg>

<svg xmlns="http://www.w3.org/2000/svg" xmlns:xlink="http://www.w3.org/1999/xlink" contentScriptType="text/ecmascript" baseProfile="tiny" width="44" height="44"><rect width="44" height="44" fill="none"/><path d="M3.114 20.697c0-8.576 6.871-16.119 15.42-16.877 8.653-.768 16.872 5.536 18.257 14.131 1.386 8.581-4.311 17.24-12.792 19.238-8.709 2.047-17.895-3.335-20.274-11.974-.404-1.47-.611-2.993-.611-4.518" fill-opacity=".2"/><path d="M35.707 20.703c0 8.541-7.361 15.788-15.903 15.645-4.155-.07-8.154-1.888-11.019-4.886-2.708-2.832-4.734-7.14-4.352-11.142.236-2.482 2.754-3.812 4.851-4.542 2.547-.887 5.303-1.271 7.98-1.482 3.977-.313 8.062-.106 11.906 1.006 2.54.734 6.537 2.171 6.537 5.401" fill-opacity=".5"/><linearGradient x1="1070.075" gradientTransform="translate(-1050.011 -3832.024)" y1="3867.063" x2="1070.075" gradientUnits="userSpaceOnUse" y2="3835.777" xlink:type="simple" xlink:actuate="onLoad" id="a" xlink:show="other"><stop stop-color="#84d8fd" offset="0"/><stop stop-color="#7dd1fb" offset=".113"/><stop stop-color="#6bbef7" offset=".275"/><stop stop-color="#4d9ff0" offset=".468"/><stop stop-color="#2676e7" offset=".67"/><stop stop-color="#2676e7" offset="1"/></linearGradient><path fill="url(#a)" d="M20.062 3.753c8.54 0 15.786 7.361 15.641 15.901-.143 8.538-7.617 15.665-16.154 15.375-8.339-.281-15.266-7.545-15.125-15.891.139-8.342 7.293-15.385 15.638-15.385"/><linearGradient x1="243.353" gradientTransform="translate(-224 -1496)" y1="1529.104" x2="243.353" gradientUnits="userSpaceOnUse" y2="1501.343" xlink:type="simple" xlink:actuate="onLoad" id="b" xlink:show="other"><stop stop-color="#c5eaff" offset="0"/><stop stop-color="#7ac6f7" offset="1"/></linearGradient><path fill="url(#b)" d="M32.152 20.425c-.037-.279-.409-.279-.619-.276-.413.006-.533-.035-.813-.338-.416-.451-1.553-.113-2.104-.142-.45-.024-.364-.171-.634-.441-.338-.335-.338-.167-.668-.034-.57.232-1.555-.074-2.178-.1-.748-.031-.516.404-1.053.749-.227.146-.615 1.053-.934.88-.618-.342-1.324.269-1.922-.253-.445-.389-.967-1.101-1.629-.916-.638.178-.625-.939-1.342-.561-.193.102-.076.332-.174.482-.163.249-.513.414-.779.52-.585.233-1.167-.378-1.428-.849-.324-.583.401-.282.053-.761-.064-.089-.309-.289-.157-.396.325-.224.117-.389.289-.699-.024.042.753.018.831.018.134 0 .544.102.516-.163-.005-.047-.113-.478-.038-.478.128 0 1.104-.088 1.084-.113.103.128.305.116.444.086.188-.041.601.52.711.631.434-.403-.328-.877-.473-1.225l.097-.934c-.155-.36.203-.548.466-.709.471-.287.685-.821.812-1.335.068-.274.115-.562.099-.846-.027-.516-.583-.315-.993-.315.004-.317.3-.443.577-.43.46.022.658-.339.943-.621.354.715.963-.218 1.068-.536.107-.328.343-.651.65-.819.343-.188.41-.593.672-.855-.408-.181-.864-.208-1.275-.381-.479-.204-.795-.732-1.042-1.169-.211-.383-.215-.88-.524-1.212-.255-.274-.734-.408-1.083-.498-.53-.136-1.711.327-1.492 1.045.134.44.862 1.91.17 2.294-.211.117-.7.111-.807.369-.107.259.408.565.153.891-.544.7-.675-.595-.948-.644-.373-.067-.573.202-.983-.096-.251-.182-.002-.474-.505-.4-.403.059-.621.068-.941-.22-.225-.2-.591-.691-.152-.883.46-.202 1.699-1.701.715-1.9-.115-.023-.235-.02-.358-.005-3.506 1.505-6.374 4.357-7.907 7.854.13.108.251.226.364.421.265.457.496.459.947.657.518.228.634.054.634.667 0 .729.381 2.279 1.261 2.279.506 0 .748.342 1.074.669.383.384.774.664 1.286.852-.171-.074-.321-.177-.452-.308.648-.646 1.617.746 2.062 1.224.69.742 1.974.818 2.947.7.272-.034.49-.219.673-.411.271-.284.287-.282.568-.276.301.006.517-.493.954-.426.164.024 1.357.3 1.369.396.059.509 2.285.943 2.051 1.47-.169.376-.578.527-.574.991.001.233-.058.903.148 1.076.25.207.535.391.848.458.364.079.479.749.704 1.015.268.318.529.465.93.47l.807.038c-.154.184.227.391.379.545.146.144.063.527.049.708-.057.557-.059 1.245.265 1.729.418.636.382.978.341 1.72-.012.147-.134 1.113.055 1.155.09.021.32-.323.381-.386.07.402.583.525.271.979-.058.082-.063.182-.048.278.511-.271.999-.581 1.478-.911-.088-.104-.229-.287-.221-.354 0-.076.68-.022.536-.315-.069-.149-.61-.44-.175-.599.107-.04.414-.066.391-.258-.045-.315.246-.334.465-.521.524-.456.442-.62-.037-1.054-.348-.313.205-.242.396-.245.563-.013.21-.578.455-.908.266-.358 1.023-.911.6-1.423-.287-.339.178-.963-.104-1.246.437.438.94-.395 1.166-.676.495-.632.229-1.094.03-1.773-.178-.605.411-1.081.331-1.673z"/><linearGradient x1="1070.003" gradientTransform="translate(-1050.011 -3832.024)" y1="3851.4" x2="1070.003" gradientUnits="userSpaceOnUse" y2="3836.409" xlink:type="simple" xlink:actuate="onLoad" id="c" xlink:show="other"><stop stop-color="#26bfff" offset="0"/><stop stop-color="#43c8ff" offset=".046"/><stop stop-color="#6fd5ff" offset=".126"/><stop stop-color="#96e0ff" offset=".211"/><stop stop-color="#b6eaff" offset=".302"/><stop stop-color="#d1f1ff" offset=".399"/><stop stop-color="#e5f7ff" offset=".504"/><stop stop-color="#f4fcff" offset=".623"/><stop stop-color="#fcfeff" offset=".767"/><stop stop-color="#fff" offset="1"/></linearGradient><path fill="url(#c)" d="M4.999 19.397c0-8.091 6.9-14.991 14.991-14.991 8.09 0 14.992 6.899 14.992 14.991h-29.983" fill-opacity=".7"/><path d="M42.938 17.978c-1.965-3.333-6.174-4.622-9.735-3.236l-.032-.046c-5.799 3.077-10.602 7.575-13.882 13.279-1.141 1.981-2.339 4.143-2.426 6.48-.121 3.253 1.743 6.25 4.723 7.563l3.442-.563 2.492-7.202c-.869-1.189-1.793-2.373-2.906-3.346.029-.126.076-.289.146-.496.904-1.639 2.028-3.152 3.298-4.528 1.168-1.269 2.604-2.929 4.264-3.524 1.084 1 2.357 1.802 3.64 2.524l6.894-3.256.183-3.487-.101-.162" fill-opacity=".2"/><path d="M26.829 34.46c-1.722-2.354-2.89-3.202-2.89-3.202s.025-.333.252-.994c1.07-1.955 2.443-3.733 4-5.32 1.182-1.203 2.592-2.787 4.3-3.18 0 0 .973 1.068 3.497 2.525l6.265-2.963.154-2.929c-.298-.502-.66-.975-1.091-1.405-2.219-2.221-5.561-2.667-8.35-1.378l-.002-.006c-1.553.68-3.031 1.798-4.367 2.819-1.839 1.403-3.541 2.926-5.052 4.682-2.319 2.697-4.466 5.916-5.673 9.293h.004c-.976 2.912-.169 6.188 2.279 8.149.475.38.984.689 1.514.931l2.895-.471 2.265-6.551" fill-opacity=".4"/><linearGradient x1="275.473" gradientTransform="matrix(1 0 0 -1 -258.002 -981.004)" y1="-1008.576" x2="300.408" gradientUnits="userSpaceOnUse" y2="-1008.576" xlink:type="simple" xlink:actuate="onLoad" id="d" xlink:show="other"><stop stop-color="#66e800" offset="0"/><stop stop-color="#1f7216" offset="1"/></linearGradient><path fill="url(#d)" d="M26.829 33.841c-1.722-2.352-2.89-3.202-2.89-3.202.279-2.041 2.2-4.084 3.537-5.558 1.319-1.453 3.029-3.46 5.014-3.937 0 0 .973 1.067 3.496 2.524l6.266-2.961.154-2.93c-.299-.502-.66-.975-1.09-1.404-2.221-2.221-5.562-2.667-8.351-1.379l-.002-.006v.001c-3.476 1.872-6.686 4.359-9.28 7.34-2.349 2.697-4.667 6.017-5.813 9.453h.004c-.977 2.913-.169 6.186 2.279 8.151.474.379.983.689 1.514.932l2.895-.471 2.267-6.553"/><linearGradient x1="287.986" gradientTransform="matrix(1 0 0 -1 -258.002 -981.004)" y1="-995.8" x2="287.986" gradientUnits="userSpaceOnUse" y2="-1014.082" xlink:type="simple" xlink:actuate="onLoad" id="e" xlink:show="other"><stop stop-color="#cfffb6" offset="0"/><stop stop-color="#8def00" offset="1"/></linearGradient><path fill="url(#e)" d="M41.883 17.909c-.258-.417-.566-.81-.928-1.171-1.299-1.297-3.006-1.942-4.751-1.942-1.022 0-2.058.223-3.021.667l-.121.056-.002.001c-.22.106-.435.227-.644.356l-.009.004-.006.003c-.853.485-2.311 1.388-3.993 2.722l-.005.003-.003.002c-2.069 1.557-3.773 3.324-5.15 5.039-2.499 3.117-3.944 6.078-4.552 7.472l-.002.008-.004.011c-.106.226-.202.45-.282.678l-.002.009-.042.12c-.124.371-.217.754-.28 1.133 4.103-5.881 14.5-18.917 21.813-11.827l1.854-.879.13-2.465z"/></svg>
